; generated by PrusaSlicer 2.4.2+win64 on 2022-05-11 at 14:46:20 UTC

; 

; external perimeters extrusion width = 0.45mm
; perimeters extrusion width = 0.45mm
; infill extrusion width = 0.45mm
; solid infill extrusion width = 0.45mm
; top infill extrusion width = 0.40mm
; support material extrusion width = 0.40mm
; first layer extrusion width = 0.70mm

M73 P0 R16
M201 X9000 Y9000 Z500 E10000 ; sets maximum accelerations, mm/sec^2
M203 X500 Y500 Z12 E120 ; sets maximum feedrates, mm / sec
M204 P2000 R1500 T2000 ; sets acceleration (P, T) and retract acceleration (R), mm/sec^2
M205 X10.00 Y10.00 Z0.20 E2.50 ; sets the jerk limits, mm/sec
M205 S0 T0 ; sets the minimum extruding and travel feed rate, mm/sec
M107
;TYPE:Custom
M204 S2000 T1500 ; MK2 firmware only supports the old M204 format
; Start G-Code sequence START
T?
M104 S200
M140 S0
M109 S200
M190 S0
G90 ; use absolute coordinates
M83 ; use relative distances for extrusion
G28
G92 E0.0
M203 E100
M92 E140
G1 Z0.250 F7200.000
G1 Y200 F7200.000
G1 X40.0 E80.0 F1000.0
G1 X130.0 E20.0 F1000.0
G1 Z0.200 F7200.000
M73 P0 R15
G1 X150.0 E13 F1000.0
G1 X160.0 E0 F1000.0
G92 E0.0
G21 ; set units to millimeters
G90 ; use absolute coordinates
M83 ; use relative distances for extrusion
; Filament gcode
M107
;LAYER_CHANGE
;Z:0.35
;HEIGHT:0.35
;BEFORE_LAYER_CHANGE
G92 E0.0
;0.35


M73 P1 R15
G1 Z.35 F7800
;AFTER_LAYER_CHANGE
;0.35
G1 E-4.5 F4800
G1 Z.95 F7800
G1 X87.322 Y73.616
G1 Z.35
G1 E4.5 F3000
;TYPE:Skirt/Brim
;WIDTH:0.7
G1 F1800
G1 X88.922 Y71.973 E.20854
G1 X90.987 Y70.974 E.20854
G1 X92.796 Y70.722 E.1661
G1 X107.704 Y70.722 E1.35557
G1 X109.963 Y71.119 E.20854
G1 X111.951 Y72.263 E.20854
G1 X113.43 Y74.015 E.20854
G1 X114.328 Y77.214 E.30206
G1 X115.164 Y118.778 E3.78018
G1 X115.164 Y122.653 E.35235
G1 X114.767 Y124.912 E.20854
G1 X113.623 Y126.9 E.20854
G1 X111.871 Y128.379 E.20854
G1 X109.719 Y129.172 E.20854
G1 X108.539 Y129.278 E.10771
G1 X92.796 Y129.278 E1.43149
G1 X90.537 Y128.881 E.20854
G1 X88.549 Y127.737 E.20854
G1 X87.049 Y125.948 E.21238
G1 X76.931 Y108.299 E1.84977
G1 X76.067 Y105.418 E.27349
G1 X75.35 Y93.96 E1.04391
G1 X75.605 Y91.681 E.20854
G1 X76.334 Y90.05 E.16244
G1 X78.624 Y86.376 E.39362
G1 X87.288 Y73.665 E1.39879
G1 E-2.7 F4800
;WIPE_START
G1 F6240
G1 X88.914 Y71.982 E-1.71
;WIPE_END
G1 E-.09 F4800
G1 Z.95 F7800
G1 X95.835 Y77.347
G1 Z.35
G1 E4.5 F3000
;TYPE:Support material
G1 F1800
G1 X107.704 Y77.347 E1.07927
G1 X107.704 Y79.567 E.20184
M73 P2 R15
G1 X107.559 Y79.422 E.01861
G1 X106.66 Y79.422 E.08173
G1 X106.324 Y79.759 E.04331
G1 X106.324 Y120.241 E3.68102
G1 X106.66 Y120.578 E.04331
G1 X107.559 Y120.578 E.08173
G1 X107.896 Y120.241 E.04331
G1 X107.896 Y118.778 E.13304
G1 X108.539 Y118.778 E.05845
G1 X108.539 Y122.653 E.35235
G1 X92.796 Y122.653 E1.43149
G1 X92.796 Y120.433 E.20184
G1 X92.941 Y120.578 E.01861
G1 X93.84 Y120.578 E.08173
G1 X94.176 Y120.241 E.04331
G1 X94.176 Y103.501 E1.52217
G1 X94.176 Y79.759 E2.15885
G1 X93.84 Y79.422 E.04331
G1 X92.941 Y79.422 E.08173
G1 X92.796 Y79.567 E.01861
G1 X92.796 Y77.347 E.20184
G1 X95.741 Y77.347 E.26778
G1 X94.261 Y79.647 F7800
G1 F1800
G1 X94.261 Y120.353 E3.70139
G1 X95.796 Y120.353 E.13958
G1 X95.796 Y79.647 E3.70139
G1 X94.355 Y79.647 E.13106
G1 E-2.7 F4800
;WIPE_START
G1 F6240
G1 X95.796 Y79.647 E-1.05329
G1 X95.796 Y80.546 E-.65671
;WIPE_END
G1 E-.09 F4800
G1 Z.95 F7800
G1 X104.704 Y90.899
G1 Z.35
G1 E4.5 F3000
G1 F1800
G1 X104.704 Y120.353 E2.67823
G1 X106.239 Y120.353 E.13958
G1 X106.239 Y79.647 E3.70139
G1 X104.704 Y79.647 E.13958
M73 P3 R15
G1 X104.704 Y90.805 E1.01464
G1 E-2.7 F4800
;WIPE_START
G1 F6240
G1 X104.704 Y88.465 E-1.71
;WIPE_END
G1 E-.09 F4800
G1 Z.95 F7800
G1 X107.498 Y122.372
G1 Z.35
G1 E4.5 F3000
G1 F1800
G1 X107.498 Y121.14 E.11197
G1 X106.803 Y121.14 E.06313
G1 X106.803 Y122.09 E.0864
G1 X106.109 Y122.09 E.06313
G1 X106.109 Y120.915 E.10684
G1 X105.415 Y120.915 E.06313
G1 X105.415 Y122.09 E.10684
G1 X104.72 Y122.09 E.06313
G1 X104.72 Y120.915 E.10684
G1 X104.142 Y120.915 E.05264
G1 X104.142 Y79.085 E3.80367
G1 X104.72 Y79.085 E.05264
G1 X104.72 Y77.91 E.10684
G1 X105.415 Y77.91 E.06313
G1 X105.415 Y79.085 E.10684
G1 X106.109 Y79.085 E.06313
G1 X106.109 Y77.91 E.10684
G1 X106.803 Y77.91 E.06313
G1 X106.803 Y79.141 E.11197
G1 E-2.7 F4800
;WIPE_START
G1 F6240
G1 X106.803 Y77.91 E-.89987
G1 X106.109 Y77.91 E-.50739
G1 X106.109 Y78.324 E-.30274
;WIPE_END
G1 E-.09 F4800
G1 Z.95 F7800
G1 X104.026 Y122.372
G1 Z.35
G1 E4.5 F3000
G1 F1800
G1 X104.026 Y77.91 E4.04292
G1 X103.332 Y77.91 E.06313
G1 X103.332 Y122.09 E4.01735
G1 X102.638 Y122.09 E.06313
G1 X102.638 Y77.91 E4.01735
G1 X101.943 Y77.91 E.06313
G1 X101.943 Y122.09 E4.01735
G1 X101.249 Y122.09 E.06313
M73 P4 R15
G1 X101.249 Y77.91 E4.01735
G1 X100.555 Y77.91 E.06313
G1 X100.555 Y122.09 E4.01735
G1 X99.86 Y122.09 E.06313
G1 X99.86 Y77.91 E4.01734
G1 X99.455 Y77.91 E.03687
G1 X99.166 Y77.91 E.02626
G1 X99.166 Y122.09 E4.01735
G1 X98.472 Y122.09 E.06313
G1 X98.472 Y77.91 E4.01735
G1 X98.007 Y77.91 E.04221
G1 X97.777 Y77.91 E.02093
G1 X97.777 Y122.09 E4.01735
G1 X97.083 Y122.09 E.06313
M73 P5 R15
G1 X97.083 Y77.91 E4.01735
G1 X96.389 Y77.91 E.06313
G1 X96.389 Y122.09 E4.01735
G1 X95.694 Y122.09 E.06313
G1 X95.694 Y120.915 E.10684
G1 X95 Y120.915 E.06313
G1 X95 Y122.09 E.10684
G1 X94.306 Y122.09 E.06313
G1 X94.297 Y120.915 E.10685
G1 X94.073 Y121.14 E.02891
G1 X93.611 Y121.14 E.04194
G1 X93.611 Y122.372 E.11197
G1 E-2.7 F4800
;WIPE_START
G1 F6240
G1 X93.611 Y121.14 E-.89987
G1 X94.073 Y121.14 E-.33702
G1 X94.297 Y120.915 E-.23233
G1 X94.3 Y121.245 E-.24079
;WIPE_END
G1 E-.09 F4800
G1 Z.95 F7800
G1 X95.694 Y79.366
G1 Z.35
G1 E4.5 F3000
G1 F1800
G1 X95.694 Y77.91 E.13241
G1 X95 Y77.91 E.06313
G1 X95 Y79.085 E.10684
G1 X94.306 Y79.085 E.06313
G1 X94.306 Y77.91 E.10684
G1 X93.611 Y77.91 E.06313
G1 X93.611 Y79.141 E.11197
G1 X94.628 Y80.675 F7800
;TYPE:Support material interface
;WIDTH:0.4
G1 F1800
G1 X95.138 Y80.165 E.03409
G1 X95.278 Y80.165 E.00664
G1 X95.278 Y80.499 E.0158
G1 X94.779 Y80.998 E.03338
G1 X94.779 Y81.473 E.02244
G1 X95.278 Y80.974 E.03338
G1 X95.278 Y81.448 E.02244
G1 X94.779 Y81.948 E.03338
G1 X94.779 Y82.422 E.02244
G1 X95.278 Y81.923 E.03338
G1 X95.278 Y82.398 E.02244
G1 X94.779 Y82.897 E.03338
G1 X94.779 Y83.371 E.02244
G1 X95.278 Y82.872 E.03338
G1 X95.278 Y83.347 E.02244
G1 X94.779 Y83.846 E.03338
G1 X94.779 Y84.321 E.02244
G1 X95.278 Y83.821 E.03338
G1 X95.278 Y84.296 E.02244
G1 X94.779 Y84.795 E.03338
G1 X94.779 Y85.27 E.02244
G1 X95.278 Y84.771 E.03338
G1 X95.278 Y85.245 E.02244
G1 X94.779 Y85.745 E.03338
G1 X94.779 Y86.219 E.02244
G1 X95.278 Y85.72 E.03338
G1 X95.278 Y86.195 E.02244
G1 X94.779 Y86.694 E.03338
G1 X94.779 Y87.169 E.02244
G1 X95.278 Y86.669 E.03338
G1 X95.278 Y87.144 E.02244
G1 X94.779 Y87.643 E.03338
G1 X94.779 Y88.118 E.02244
G1 X95.278 Y87.619 E.03338
G1 X95.278 Y88.093 E.02244
G1 X94.779 Y88.592 E.03338
G1 X94.779 Y89.067 E.02244
G1 X95.278 Y88.568 E.03338
G1 X95.278 Y89.042 E.02244
G1 X94.779 Y89.542 E.03338
G1 X94.779 Y90.016 E.02244
G1 X95.278 Y89.517 E.03338
G1 X95.278 Y89.992 E.02244
G1 X94.779 Y90.491 E.03338
G1 X94.779 Y90.966 E.02244
G1 X95.278 Y90.466 E.03338
G1 X95.278 Y90.941 E.02244
G1 X94.779 Y91.44 E.03338
G1 X94.779 Y91.915 E.02244
G1 X95.278 Y91.416 E.03338
G1 X95.278 Y91.89 E.02244
G1 X94.779 Y92.39 E.03338
G1 X94.779 Y92.864 E.02244
G1 X95.278 Y92.365 E.03338
G1 X95.278 Y92.84 E.02244
G1 X94.779 Y93.339 E.03338
G1 X94.779 Y93.813 E.02244
G1 X95.278 Y93.314 E.03338
G1 X95.278 Y93.789 E.02244
G1 X94.779 Y94.288 E.03338
G1 X94.779 Y94.763 E.02244
G1 X95.278 Y94.263 E.03338
G1 X95.278 Y94.738 E.02244
G1 X94.779 Y95.237 E.03338
G1 X94.779 Y95.712 E.02244
G1 X95.278 Y95.213 E.03338
G1 X95.278 Y95.687 E.02244
G1 X94.779 Y96.187 E.03338
G1 X94.779 Y96.661 E.02244
G1 X95.278 Y96.162 E.03338
G1 X95.278 Y96.637 E.02244
G1 X94.779 Y97.136 E.03338
G1 X94.779 Y97.611 E.02244
G1 X95.278 Y97.111 E.03338
G1 X95.278 Y97.586 E.02244
G1 X94.779 Y98.085 E.03338
G1 X94.779 Y98.56 E.02244
G1 X95.278 Y98.061 E.03338
G1 X95.278 Y98.535 E.02244
G1 X94.779 Y99.035 E.03338
G1 X94.779 Y99.509 E.02244
G1 X95.278 Y99.01 E.03338
G1 X95.278 Y99.484 E.02244
G1 X94.779 Y99.984 E.03338
G1 X94.779 Y100.458 E.02244
G1 X95.278 Y99.959 E.03338
G1 X95.278 Y100.434 E.02244
G1 X94.779 Y100.933 E.03338
G1 X94.779 Y101.408 E.02244
G1 X95.278 Y100.908 E.03338
G1 X95.278 Y101.383 E.02244
G1 X94.779 Y101.882 E.03338
G1 X94.779 Y102.357 E.02244
G1 X95.278 Y101.858 E.03338
G1 X95.278 Y102.332 E.02244
G1 X94.779 Y102.832 E.03338
G1 X94.779 Y103.306 E.02244
G1 X95.278 Y102.807 E.03338
G1 X95.278 Y103.282 E.02244
G1 X94.779 Y103.781 E.03338
G1 X94.779 Y104.256 E.02244
G1 X95.278 Y103.756 E.03338
G1 X95.278 Y104.231 E.02244
G1 X94.779 Y104.73 E.03338
G1 X94.779 Y105.205 E.02244
G1 X95.278 Y104.705 E.03338
G1 X95.278 Y105.18 E.02244
G1 X94.779 Y105.679 E.03338
G1 X94.779 Y106.154 E.02244
G1 X95.278 Y105.655 E.03338
G1 X95.278 Y106.129 E.02244
G1 X94.779 Y106.629 E.03338
G1 X94.779 Y107.103 E.02244
G1 X95.278 Y106.604 E.03338
G1 X95.278 Y107.079 E.02244
G1 X94.779 Y107.578 E.03338
G1 X94.779 Y108.053 E.02244
G1 X95.278 Y107.553 E.03338
G1 X95.278 Y108.028 E.02244
G1 X94.779 Y108.527 E.03338
G1 X94.779 Y109.002 E.02244
G1 X95.278 Y108.503 E.03338
G1 X95.278 Y108.977 E.02244
G1 X94.779 Y109.477 E.03338
G1 X94.779 Y109.951 E.02244
G1 X95.278 Y109.452 E.03338
G1 X95.278 Y109.927 E.02244
G1 X94.779 Y110.426 E.03338
G1 X94.779 Y110.9 E.02244
G1 X95.278 Y110.401 E.03338
G1 X95.278 Y110.876 E.02244
G1 X94.779 Y111.375 E.03338
G1 X94.779 Y111.85 E.02244
G1 X95.278 Y111.35 E.03338
G1 X95.278 Y111.825 E.02244
G1 X94.779 Y112.324 E.03338
G1 X94.779 Y112.799 E.02244
G1 X95.278 Y112.3 E.03338
G1 X95.278 Y112.774 E.02244
G1 X94.779 Y113.274 E.03338
G1 X94.779 Y113.748 E.02244
G1 X95.278 Y113.249 E.03338
G1 X95.278 Y113.724 E.02244
G1 X94.779 Y114.223 E.03338
G1 X94.779 Y114.698 E.02244
G1 X95.278 Y114.198 E.03338
G1 X95.278 Y114.673 E.02244
G1 X94.779 Y115.172 E.03338
G1 X94.779 Y115.647 E.02244
G1 X95.278 Y115.148 E.03338
G1 X95.278 Y115.622 E.02244
G1 X94.779 Y116.121 E.03338
G1 X94.779 Y116.596 E.02244
G1 X95.278 Y116.097 E.03338
G1 X95.278 Y116.571 E.02244
G1 X94.779 Y117.071 E.03338
G1 X94.779 Y117.545 E.02244
G1 X95.278 Y117.046 E.03338
G1 X95.278 Y117.521 E.02244
G1 X94.779 Y118.02 E.03338
G1 X94.779 Y118.495 E.02244
G1 X95.278 Y117.995 E.03338
G1 X95.278 Y118.47 E.02244
G1 X94.779 Y118.969 E.03338
G1 X94.779 Y119.444 E.02244
G1 X95.278 Y118.945 E.03338
G1 X95.278 Y119.419 E.02244
G1 X94.711 Y119.986 E.0379
G1 E-2.7 F4800
;WIPE_START
G1 F6240
G1 X95.278 Y119.419 E-.58592
G1 X95.278 Y118.945 E-.34685
G1 X94.779 Y119.444 E-.51599
G1 X94.779 Y119.086 E-.26124
;WIPE_END
G1 E-.09 F4800
G1 Z.95 F7800
G1 X105.153 Y119.986
G1 Z.35
G1 E4.5 F3000
G1 F1800
M73 P6 R15
G1 X105.721 Y119.418 E.03797
G1 X105.721 Y118.944 E.02244
G1 X105.222 Y119.443 E.03338
G1 X105.222 Y118.968 E.02244
G1 X105.721 Y118.469 E.03338
G1 X105.721 Y117.994 E.02244
G1 X105.222 Y118.494 E.03338
G1 X105.222 Y118.019 E.02244
G1 X105.721 Y117.52 E.03338
G1 X105.721 Y117.045 E.02244
G1 X105.222 Y117.544 E.03338
G1 X105.222 Y117.07 E.02244
G1 X105.721 Y116.57 E.03338
G1 X105.721 Y116.096 E.02244
G1 X105.222 Y116.595 E.03338
G1 X105.222 Y116.12 E.02244
G1 X105.721 Y115.621 E.03338
G1 X105.721 Y115.146 E.02244
G1 X105.222 Y115.646 E.03338
G1 X105.222 Y115.171 E.02244
G1 X105.721 Y114.672 E.03338
G1 X105.721 Y114.197 E.02244
G1 X105.222 Y114.696 E.03338
G1 X105.222 Y114.222 E.02244
G1 X105.721 Y113.723 E.03338
G1 X105.721 Y113.248 E.02244
G1 X105.222 Y113.747 E.03338
G1 X105.222 Y113.273 E.02244
G1 X105.721 Y112.773 E.03338
G1 X105.721 Y112.299 E.02244
G1 X105.222 Y112.798 E.03338
G1 X105.222 Y112.323 E.02244
G1 X105.721 Y111.824 E.03338
G1 X105.721 Y111.349 E.02244
G1 X105.222 Y111.849 E.03338
G1 X105.222 Y111.374 E.02244
G1 X105.721 Y110.875 E.03338
G1 X105.721 Y110.4 E.02244
G1 X105.222 Y110.899 E.03338
G1 X105.222 Y110.425 E.02244
G1 X105.721 Y109.925 E.03338
G1 X105.721 Y109.451 E.02244
G1 X105.222 Y109.95 E.03338
G1 X105.222 Y109.475 E.02244
G1 X105.721 Y108.976 E.03338
G1 X105.721 Y108.502 E.02244
G1 X105.222 Y109.001 E.03338
G1 X105.222 Y108.526 E.02244
G1 X105.721 Y108.027 E.03338
G1 X105.721 Y107.552 E.02244
G1 X105.222 Y108.052 E.03338
G1 X105.222 Y107.577 E.02244
G1 X105.721 Y107.078 E.03338
G1 X105.721 Y106.603 E.02244
G1 X105.222 Y107.102 E.03338
G1 X105.222 Y106.628 E.02244
G1 X105.721 Y106.128 E.03338
G1 X105.721 Y105.654 E.02244
G1 X105.222 Y106.153 E.03338
G1 X105.222 Y105.678 E.02244
G1 X105.721 Y105.179 E.03338
G1 X105.721 Y104.704 E.02244
G1 X105.222 Y105.204 E.03338
G1 X105.222 Y104.729 E.02244
G1 X105.721 Y104.23 E.03338
G1 X105.721 Y103.755 E.02244
G1 X105.222 Y104.254 E.03338
G1 X105.222 Y103.78 E.02244
G1 X105.721 Y103.281 E.03338
G1 X105.721 Y102.806 E.02244
G1 X105.222 Y103.305 E.03338
G1 X105.222 Y102.831 E.02244
G1 X105.721 Y102.331 E.03338
G1 X105.721 Y101.857 E.02244
G1 X105.222 Y102.356 E.03338
G1 X105.222 Y101.881 E.02244
G1 X105.721 Y101.382 E.03338
G1 X105.721 Y100.907 E.02244
G1 X105.222 Y101.407 E.03338
G1 X105.222 Y100.932 E.02244
G1 X105.721 Y100.433 E.03338
G1 X105.721 Y99.958 E.02244
G1 X105.222 Y100.457 E.03338
G1 X105.222 Y99.983 E.02244
G1 X105.721 Y99.483 E.03338
G1 X105.721 Y99.009 E.02244
G1 X105.222 Y99.508 E.03338
G1 X105.222 Y99.033 E.02244
G1 X105.721 Y98.534 E.03338
G1 X105.721 Y98.06 E.02244
G1 X105.222 Y98.559 E.03338
G1 X105.222 Y98.084 E.02244
G1 X105.721 Y97.585 E.03338
G1 X105.721 Y97.11 E.02244
G1 X105.222 Y97.61 E.03338
G1 X105.222 Y97.135 E.02244
G1 X105.721 Y96.636 E.03338
G1 X105.721 Y96.161 E.02244
G1 X105.222 Y96.66 E.03338
G1 X105.222 Y96.186 E.02244
G1 X105.721 Y95.686 E.03338
G1 X105.721 Y95.212 E.02244
G1 X105.222 Y95.711 E.03338
G1 X105.222 Y95.236 E.02244
G1 X105.721 Y94.737 E.03338
G1 X105.721 Y94.262 E.02244
G1 X105.222 Y94.762 E.03338
G1 X105.222 Y94.287 E.02244
G1 X105.721 Y93.788 E.03338
G1 X105.721 Y93.313 E.02244
G1 X105.222 Y93.812 E.03338
G1 X105.222 Y93.338 E.02244
G1 X105.721 Y92.839 E.03338
G1 X105.721 Y92.364 E.02244
G1 X105.222 Y92.863 E.03338
G1 X105.222 Y92.389 E.02244
G1 X105.721 Y91.889 E.03338
G1 X105.721 Y91.415 E.02244
G1 X105.222 Y91.914 E.03338
G1 X105.222 Y91.439 E.02244
G1 X105.721 Y90.94 E.03338
G1 X105.721 Y90.465 E.02244
G1 X105.222 Y90.965 E.03338
G1 X105.222 Y90.49 E.02244
G1 X105.721 Y89.991 E.03338
G1 X105.721 Y89.516 E.02244
G1 X105.222 Y90.015 E.03338
G1 X105.222 Y89.541 E.02244
G1 X105.721 Y89.041 E.03338
G1 X105.721 Y88.567 E.02244
G1 X105.222 Y89.066 E.03338
G1 X105.222 Y88.591 E.02244
G1 X105.721 Y88.092 E.03338
G1 X105.721 Y87.618 E.02244
G1 X105.222 Y88.117 E.03338
G1 X105.222 Y87.642 E.02244
G1 X105.721 Y87.143 E.03338
G1 X105.721 Y86.668 E.02244
G1 X105.222 Y87.168 E.03338
G1 X105.222 Y86.693 E.02244
G1 X105.721 Y86.194 E.03338
G1 X105.721 Y85.719 E.02244
G1 X105.222 Y86.218 E.03338
G1 X105.222 Y85.744 E.02244
G1 X105.721 Y85.244 E.03338
G1 X105.721 Y84.77 E.02244
G1 X105.222 Y85.269 E.03338
G1 X105.222 Y84.794 E.02244
G1 X105.721 Y84.295 E.03338
G1 X105.721 Y83.82 E.02244
G1 X105.222 Y84.32 E.03338
G1 X105.222 Y83.845 E.02244
G1 X105.721 Y83.346 E.03338
G1 X105.721 Y82.871 E.02244
G1 X105.222 Y83.37 E.03338
G1 X105.222 Y82.896 E.02244
G1 X105.721 Y82.397 E.03338
G1 X105.721 Y81.922 E.02244
G1 X105.222 Y82.421 E.03338
G1 X105.222 Y81.947 E.02244
G1 X105.721 Y81.447 E.03338
G1 X105.721 Y80.973 E.02244
G1 X105.222 Y81.472 E.03338
G1 X105.222 Y80.997 E.02244
G1 X105.721 Y80.498 E.03338
G1 X105.721 Y80.165 E.01575
G1 X105.58 Y80.165 E.00669
G1 X105.071 Y80.674 E.03402
G1 E-2.7 F4800
;WIPE_START
G1 F6240
G1 X105.58 Y80.165 E-.52585
G1 X105.721 Y80.165 E-.1034
G1 X105.721 Y80.498 E-.24345
G1 X105.222 Y80.997 E-.51599
G1 X105.222 Y81.437 E-.3213
;WIPE_END
G1 E-.09 F4800
G1 Z.95 F7800
G1 X91.259 Y87.766
G1 Z.35
G1 E4.5 F3000
;TYPE:Support material
;WIDTH:0.7
G1 F1800
G1 X92.069 Y87.963 E.07577
G1 X92.523 Y88.394 E.05691
G1 X92.604 Y88.359 E.00803
G1 X92.604 Y94.421 E.55122
G1 X82.441 Y94.421 E.92413
G1 X82.257 Y94.605 E.02362
