; generated by PrusaSlicer 2.4.2+win64 on 2022-05-11 at 14:47:37 UTC

; 

; external perimeters extrusion width = 0.45mm
; perimeters extrusion width = 0.45mm
; infill extrusion width = 0.45mm
; solid infill extrusion width = 0.45mm
; top infill extrusion width = 0.40mm
; support material extrusion width = 0.40mm
; first layer extrusion width = 0.70mm

M73 P0 R14
M201 X9000 Y9000 Z500 E10000 ; sets maximum accelerations, mm/sec^2
M203 X500 Y500 Z12 E120 ; sets maximum feedrates, mm / sec
M204 P2000 R1500 T2000 ; sets acceleration (P, T) and retract acceleration (R), mm/sec^2
M205 X10.00 Y10.00 Z0.20 E2.50 ; sets the jerk limits, mm/sec
M205 S0 T0 ; sets the minimum extruding and travel feed rate, mm/sec
M107
;TYPE:Custom
M204 S2000 T1500 ; MK2 firmware only supports the old M204 format
; Start G-Code sequence START
T?
M104 S200
M140 S0
M109 S200
M190 S0
G90 ; use absolute coordinates
M83 ; use relative distances for extrusion
G28
G92 E0.0
M203 E100
M92 E140
G1 Z0.250 F7200.000
G1 Y200 F7200.000
G1 X40.0 E80.0 F1000.0
G1 X130.0 E20.0 F1000.0
G1 Z0.200 F7200.000
M73 P1 R14
G1 X150.0 E13 F1000.0
G1 X160.0 E0 F1000.0
G92 E0.0
G21 ; set units to millimeters
G90 ; use absolute coordinates
M83 ; use relative distances for extrusion
; Filament gcode
M107
;LAYER_CHANGE
;Z:0.35
;HEIGHT:0.35
;BEFORE_LAYER_CHANGE
G92 E0.0
;0.35


G1 Z.35 F7800
;AFTER_LAYER_CHANGE
;0.35
G1 E-4.5 F4800
G1 Z.95 F7800
G1 X86.478 Y73.079
G1 Z.35
G1 E4.5 F3000
;TYPE:Skirt/Brim
;WIDTH:0.7
G1 F1800
G1 X88.237 Y71.607 E.20854
G1 X90.392 Y70.823 E.20854
G1 X91.545 Y70.722 E.10523
G1 X106.455 Y70.722 E1.35575
G1 X108.714 Y71.119 E.20854
G1 X110.702 Y72.263 E.20854
G1 X112.181 Y74.015 E.20854
G1 X113.078 Y77.214 E.30206
G1 X113.915 Y118.778 E3.78018
G1 X113.915 Y122.653 E.35235
G1 X113.518 Y124.912 E.20854
G1 X112.374 Y126.9 E.20854
G1 X110.622 Y128.379 E.20854
G1 X108.47 Y129.172 E.20854
G1 X107.29 Y129.278 E.10771
G1 X91.545 Y129.278 E1.43166
G1 X89.286 Y128.881 E.20854
G1 X87.298 Y127.737 E.20854
G1 X85.819 Y125.985 E.20854
G1 X85.327 Y124.937 E.10523
G1 X78.044 Y105.113 E1.9204
G1 X77.435 Y102.485 E.24528
G1 X77.304 Y101.176 E.11964
G1 X77.304 Y98.824 E.21389
G1 X77.435 Y97.515 E.11964
M73 P2 R14
G1 X78.044 Y94.887 E.24528
G1 X85.327 Y75.063 E1.9204
G1 X86.448 Y73.131 E.20309
G1 E-2.7 F4800
;WIPE_START
G1 F6240
G1 X88.229 Y71.614 E-1.71
;WIPE_END
G1 E-.09 F4800
G1 Z.95 F7800
G1 X94.584 Y77.347
G1 Z.35
G1 E4.5 F3000
;TYPE:Support material
G1 F1800
G1 X106.455 Y77.347 E1.07944
G1 X106.455 Y79.568 E.20193
G1 X106.309 Y79.422 E.01873
G1 X105.411 Y79.422 E.08164
G1 X105.075 Y79.759 E.04331
G1 X105.075 Y120.241 E3.68102
G1 X105.411 Y120.578 E.04331
G1 X106.309 Y120.578 E.08165
G1 X106.646 Y120.241 E.04331
G1 X106.646 Y118.778 E.13304
G1 X107.29 Y118.778 E.05853
G1 X107.29 Y122.653 E.35235
G1 X91.545 Y122.653 E1.43166
G1 X91.545 Y120.432 E.20193
G1 X91.691 Y120.578 E.01873
G1 X92.589 Y120.578 E.08165
G1 X92.925 Y120.241 E.04331
G1 X92.925 Y95.516 E2.24827
G1 X92.925 Y79.759 E1.43275
G1 X92.589 Y79.422 E.04331
G1 X91.691 Y79.422 E.08164
G1 X91.545 Y79.568 E.01873
G1 X91.545 Y77.347 E.20193
G1 X94.49 Y77.347 E.26778
G1 X93.01 Y79.647 F7800
G1 F1800
G1 X93.01 Y120.353 E3.70139
G1 X94.545 Y120.353 E.13958
G1 X94.545 Y79.647 E3.70139
G1 X93.104 Y79.647 E.13106
M73 P3 R14
G1 E-2.7 F4800
;WIPE_START
G1 F6240
G1 X94.545 Y79.647 E-1.05329
G1 X94.545 Y80.546 E-.65671
;WIPE_END
G1 E-.09 F4800
G1 Z.95 F7800
G1 X103.455 Y91.994
G1 Z.35
G1 E4.5 F3000
G1 F1800
G1 X103.455 Y120.353 E2.57865
G1 X104.99 Y120.353 E.13958
G1 X104.99 Y79.647 E3.70139
G1 X103.455 Y79.647 E.13958
G1 X103.455 Y91.901 E1.11421
G1 E-2.7 F4800
;WIPE_START
G1 F6240
G1 X103.455 Y89.561 E-1.71
;WIPE_END
G1 E-.09 F4800
G1 Z.95 F7800
G1 X106.109 Y122.372
G1 Z.35
G1 E4.5 F3000
G1 F1800
G1 X106.109 Y121.14 E.11197
G1 X105.415 Y121.14 E.06313
G1 X105.415 Y122.09 E.0864
G1 X104.72 Y122.09 E.06313
G1 X104.72 Y120.915 E.10684
G1 X104.026 Y120.915 E.06313
G1 X104.026 Y122.09 E.10684
G1 X103.332 Y122.09 E.06313
G1 X103.332 Y120.915 E.10684
G1 X102.893 Y120.915 E.03995
G1 X102.893 Y79.085 E3.80367
G1 X103.332 Y79.085 E.03995
G1 X103.332 Y77.91 E.10684
G1 X104.026 Y77.91 E.06313
G1 X104.026 Y79.085 E.10684
G1 X104.72 Y79.085 E.06313
G1 X104.72 Y77.91 E.10684
G1 X105.415 Y77.91 E.06313
G1 X105.415 Y79.141 E.11197
G1 E-2.7 F4800
;WIPE_START
G1 F6240
G1 X105.415 Y77.91 E-.89987
G1 X104.72 Y77.91 E-.50739
G1 X104.72 Y78.324 E-.30274
;WIPE_END
G1 E-.09 F4800
G1 Z.95 F7800
G1 X102.638 Y122.372
G1 Z.35
G1 E4.5 F3000
G1 F1800
G1 X102.638 Y77.91 E4.04292
G1 X101.943 Y77.91 E.06313
G1 X101.943 Y122.09 E4.01735
G1 X101.249 Y122.09 E.06313
M73 P4 R14
G1 X101.249 Y77.91 E4.01735
G1 X100.555 Y77.91 E.06313
G1 X100.555 Y122.09 E4.01735
G1 X99.86 Y122.09 E.06313
M73 P4 R13
G1 X99.86 Y77.91 E4.01735
G1 X99.166 Y77.91 E.06313
G1 X99.166 Y122.09 E4.01734
G1 X98.472 Y122.09 E.06313
G1 X98.472 Y77.91 E4.01735
G1 X98.204 Y77.91 E.02435
M73 P5 R13
G1 X97.777 Y77.91 E.03878
G1 X97.777 Y122.09 E4.01735
G1 X97.083 Y122.09 E.06313
G1 X97.083 Y77.91 E4.01735
G1 X96.389 Y77.91 E.06313
G1 X96.389 Y122.09 E4.01735
G1 X95.694 Y122.09 E.06313
G1 X95.694 Y77.91 E4.01735
G1 X95 Y77.91 E.06313
G1 X95 Y122.09 E4.01735
G1 X94.306 Y122.09 E.06313
G1 X94.306 Y120.915 E.10684
G1 X93.611 Y120.915 E.06313
G1 X93.611 Y122.09 E.10684
G1 X92.917 Y122.09 E.06313
G1 X92.917 Y121.045 E.09508
G1 X92.822 Y121.14 E.01227
G1 X92.223 Y121.14 E.05446
G1 X92.223 Y122.372 E.11197
G1 E-2.7 F4800
;WIPE_START
G1 F6240
G1 X92.223 Y121.14 E-.89987
G1 X92.822 Y121.14 E-.43765
G1 X92.917 Y121.045 E-.09862
G1 X92.917 Y121.42 E-.27386
;WIPE_END
G1 E-.09 F4800
G1 Z.95 F7800
G1 X94.306 Y79.366
G1 Z.35
G1 E4.5 F3000
G1 F1800
M73 P6 R13
G1 X94.306 Y77.91 E.13241
G1 X93.611 Y77.91 E.06313
G1 X93.611 Y79.085 E.10684
G1 X93.046 Y79.085 E.05137
G1 X92.917 Y78.955 E.01664
G1 X92.917 Y77.91 E.09508
G1 X92.223 Y77.91 E.06313
G1 X92.223 Y79.141 E.11197
G1 X93.865 Y80.014 F7800
;TYPE:Support material interface
;WIDTH:0.4
G1 F1800
G1 X93.528 Y80.351 E.02252
G1 X93.528 Y80.825 E.02244
G1 X94.027 Y80.326 E.03338
G1 X94.027 Y80.801 E.02244
G1 X93.528 Y81.3 E.03338
G1 X93.528 Y81.775 E.02244
G1 X94.027 Y81.275 E.03338
G1 X94.027 Y81.75 E.02244
G1 X93.528 Y82.249 E.03338
G1 X93.528 Y82.724 E.02244
G1 X94.027 Y82.225 E.03338
G1 X94.027 Y82.699 E.02244
G1 X93.528 Y83.199 E.03338
G1 X93.528 Y83.673 E.02244
G1 X94.027 Y83.174 E.03338
G1 X94.027 Y83.649 E.02244
G1 X93.528 Y84.148 E.03338
G1 X93.528 Y84.622 E.02244
G1 X94.027 Y84.123 E.03338
G1 X94.027 Y84.598 E.02244
G1 X93.528 Y85.097 E.03338
G1 X93.528 Y85.572 E.02244
G1 X94.027 Y85.072 E.03338
G1 X94.027 Y85.547 E.02244
G1 X93.528 Y86.046 E.03338
G1 X93.528 Y86.521 E.02244
G1 X94.027 Y86.022 E.03338
G1 X94.027 Y86.496 E.02244
G1 X93.528 Y86.996 E.03338
G1 X93.528 Y87.47 E.02244
G1 X94.027 Y86.971 E.03338
G1 X94.027 Y87.446 E.02244
G1 X93.528 Y87.945 E.03338
G1 X93.528 Y88.42 E.02244
G1 X94.027 Y87.92 E.03338
G1 X94.027 Y88.395 E.02244
G1 X93.528 Y88.894 E.03338
G1 X93.528 Y89.369 E.02244
G1 X94.027 Y88.87 E.03338
G1 X94.027 Y89.344 E.02244
G1 X93.528 Y89.843 E.03338
G1 X93.528 Y90.318 E.02244
G1 X94.027 Y89.819 E.03338
G1 X94.027 Y90.293 E.02244
G1 X93.528 Y90.793 E.03338
G1 X93.528 Y91.267 E.02244
G1 X94.027 Y90.768 E.03338
G1 X94.027 Y91.243 E.02244
G1 X93.528 Y91.742 E.03338
G1 X93.528 Y92.217 E.02244
G1 X94.027 Y91.717 E.03338
G1 X94.027 Y92.192 E.02244
G1 X93.528 Y92.691 E.03338
G1 X93.528 Y93.166 E.02244
G1 X94.027 Y92.667 E.03338
G1 X94.027 Y93.141 E.02244
G1 X93.528 Y93.641 E.03338
G1 X93.528 Y94.115 E.02244
G1 X94.027 Y93.616 E.03338
G1 X94.027 Y94.091 E.02244
G1 X93.528 Y94.59 E.03338
G1 X93.528 Y95.064 E.02244
G1 X94.027 Y94.565 E.03338
G1 X94.027 Y95.04 E.02244
G1 X93.528 Y95.539 E.03338
G1 X93.528 Y96.014 E.02244
G1 X94.027 Y95.514 E.03338
G1 X94.027 Y95.989 E.02244
G1 X93.528 Y96.488 E.03338
G1 X93.528 Y96.963 E.02244
G1 X94.027 Y96.464 E.03338
G1 X94.027 Y96.938 E.02244
G1 X93.528 Y97.438 E.03338
G1 X93.528 Y97.912 E.02244
G1 X94.027 Y97.413 E.03338
G1 X94.027 Y97.888 E.02244
G1 X93.528 Y98.387 E.03338
G1 X93.528 Y98.862 E.02244
G1 X94.027 Y98.362 E.03338
G1 X94.027 Y98.837 E.02244
G1 X93.528 Y99.336 E.03338
G1 X93.528 Y99.811 E.02244
G1 X94.027 Y99.312 E.03338
G1 X94.027 Y99.786 E.02244
G1 X93.528 Y100.285 E.03338
G1 X93.528 Y100.76 E.02244
G1 X94.027 Y100.261 E.03338
G1 X94.027 Y100.735 E.02244
G1 X93.528 Y101.235 E.03338
G1 X93.528 Y101.709 E.02244
G1 X94.027 Y101.21 E.03338
G1 X94.027 Y101.685 E.02244
G1 X93.528 Y102.184 E.03338
G1 X93.528 Y102.659 E.02244
G1 X94.027 Y102.159 E.03338
G1 X94.027 Y102.634 E.02244
G1 X93.528 Y103.133 E.03338
G1 X93.528 Y103.608 E.02244
G1 X94.027 Y103.109 E.03338
G1 X94.027 Y103.583 E.02244
G1 X93.528 Y104.083 E.03338
G1 X93.528 Y104.557 E.02244
G1 X94.027 Y104.058 E.03338
G1 X94.027 Y104.533 E.02244
G1 X93.528 Y105.032 E.03338
G1 X93.528 Y105.506 E.02244
G1 X94.027 Y105.007 E.03338
G1 X94.027 Y105.482 E.02244
G1 X93.528 Y105.981 E.03338
G1 X93.528 Y106.456 E.02244
G1 X94.027 Y105.956 E.03338
G1 X94.027 Y106.431 E.02244
G1 X93.528 Y106.93 E.03338
G1 X93.528 Y107.405 E.02244
G1 X94.027 Y106.906 E.03338
G1 X94.027 Y107.38 E.02244
G1 X93.528 Y107.88 E.03338
G1 X93.528 Y108.354 E.02244
G1 X94.027 Y107.855 E.03338
G1 X94.027 Y108.33 E.02244
G1 X93.528 Y108.829 E.03338
G1 X93.528 Y109.304 E.02244
G1 X94.027 Y108.804 E.03338
G1 X94.027 Y109.279 E.02244
G1 X93.528 Y109.778 E.03338
G1 X93.528 Y110.253 E.02244
G1 X94.027 Y109.754 E.03338
G1 X94.027 Y110.228 E.02244
G1 X93.528 Y110.727 E.03338
G1 X93.528 Y111.202 E.02244
G1 X94.027 Y110.703 E.03338
G1 X94.027 Y111.177 E.02244
G1 X93.528 Y111.677 E.03338
G1 X93.528 Y112.151 E.02244
G1 X94.027 Y111.652 E.03338
G1 X94.027 Y112.127 E.02244
G1 X93.528 Y112.626 E.03338
G1 X93.528 Y113.101 E.02244
G1 X94.027 Y112.601 E.03338
G1 X94.027 Y113.076 E.02244
G1 X93.528 Y113.575 E.03338
G1 X93.528 Y114.05 E.02244
G1 X94.027 Y113.551 E.03338
G1 X94.027 Y114.025 E.02244
G1 X93.528 Y114.525 E.03338
G1 X93.528 Y114.999 E.02244
G1 X94.027 Y114.5 E.03338
G1 X94.027 Y114.975 E.02244
G1 X93.528 Y115.474 E.03338
G1 X93.528 Y115.948 E.02244
G1 X94.027 Y115.449 E.03338
G1 X94.027 Y115.924 E.02244
G1 X93.528 Y116.423 E.03338
G1 X93.528 Y116.898 E.02244
G1 X94.027 Y116.398 E.03338
G1 X94.027 Y116.873 E.02244
G1 X93.528 Y117.372 E.03338
G1 X93.528 Y117.847 E.02244
G1 X94.027 Y117.348 E.03338
G1 X94.027 Y117.822 E.02244
G1 X93.528 Y118.322 E.03338
G1 X93.528 Y118.796 E.02244
G1 X94.027 Y118.297 E.03338
G1 X94.027 Y118.772 E.02244
G1 X93.528 Y119.271 E.03338
G1 X93.528 Y119.746 E.02244
G1 X94.027 Y119.246 E.03338
G1 X94.027 Y119.721 E.02244
G1 X93.762 Y119.986 E.01774
G1 E-2.7 F4800
;WIPE_START
G1 F6240
G1 X94.027 Y119.721 E-.27417
G1 X94.027 Y119.246 E-.34685
G1 X93.528 Y119.746 E-.516
G1 X93.528 Y119.271 E-.34685
G1 X93.747 Y119.052 E-.22614
;WIPE_END
G1 E-.09 F4800
G1 Z.95 F7800
G1 X104.204 Y119.986
G1 Z.35
G1 E4.5 F3000
G1 F1800
G1 X104.472 Y119.718 E.01793
G1 X104.472 Y119.243 E.02244
G1 X103.973 Y119.743 E.03338
G1 X103.973 Y119.268 E.02244
G1 X104.472 Y118.769 E.03338
G1 X104.472 Y118.294 E.02244
G1 X103.973 Y118.793 E.03338
G1 X103.973 Y118.319 E.02244
G1 X104.472 Y117.819 E.03338
G1 X104.472 Y117.345 E.02244
G1 X103.973 Y117.844 E.03338
G1 X103.973 Y117.369 E.02244
G1 X104.472 Y116.87 E.03338
G1 X104.472 Y116.396 E.02244
G1 X103.973 Y116.895 E.03338
G1 X103.973 Y116.42 E.02244
G1 X104.472 Y115.921 E.03338
G1 X104.472 Y115.446 E.02244
G1 X103.973 Y115.946 E.03338
G1 X103.973 Y115.471 E.02244
G1 X104.472 Y114.972 E.03338
G1 X104.472 Y114.497 E.02244
G1 X103.973 Y114.996 E.03338
G1 X103.973 Y114.522 E.02244
G1 X104.472 Y114.022 E.03338
G1 X104.472 Y113.548 E.02244
G1 X103.973 Y114.047 E.03338
G1 X103.973 Y113.572 E.02244
G1 X104.472 Y113.073 E.03338
G1 X104.472 Y112.598 E.02244
G1 X103.973 Y113.098 E.03338
G1 X103.973 Y112.623 E.02244
G1 X104.472 Y112.124 E.03338
G1 X104.472 Y111.649 E.02244
G1 X103.973 Y112.148 E.03338
G1 X103.973 Y111.674 E.02244
G1 X104.472 Y111.175 E.03338
G1 X104.472 Y110.7 E.02244
G1 X103.973 Y111.199 E.03338
G1 X103.973 Y110.725 E.02244
G1 X104.472 Y110.225 E.03338
G1 X104.472 Y109.751 E.02244
G1 X103.973 Y110.25 E.03338
G1 X103.973 Y109.775 E.02244
G1 X104.472 Y109.276 E.03338
G1 X104.472 Y108.801 E.02244
G1 X103.973 Y109.301 E.03338
G1 X103.973 Y108.826 E.02244
G1 X104.472 Y108.327 E.03338
G1 X104.472 Y107.852 E.02244
G1 X103.973 Y108.351 E.03338
G1 X103.973 Y107.877 E.02244
G1 X104.472 Y107.377 E.03338
G1 X104.472 Y106.903 E.02244
G1 X103.973 Y107.402 E.03338
G1 X103.973 Y106.927 E.02244
G1 X104.472 Y106.428 E.03338
G1 X104.472 Y105.954 E.02244
G1 X103.973 Y106.453 E.03338
G1 X103.973 Y105.978 E.02244
G1 X104.472 Y105.479 E.03338
G1 X104.472 Y105.004 E.02244
G1 X103.973 Y105.504 E.03338
G1 X103.973 Y105.029 E.02244
G1 X104.472 Y104.53 E.03338
G1 X104.472 Y104.055 E.02244
G1 X103.973 Y104.554 E.03338
G1 X103.973 Y104.08 E.02244
G1 X104.472 Y103.58 E.03338
G1 X104.472 Y103.106 E.02244
G1 X103.973 Y103.605 E.03338
G1 X103.973 Y103.13 E.02244
G1 X104.472 Y102.631 E.03338
G1 X104.472 Y102.156 E.02244
G1 X103.973 Y102.656 E.03338
G1 X103.973 Y102.181 E.02244
G1 X104.472 Y101.682 E.03338
G1 X104.472 Y101.207 E.02244
G1 X103.973 Y101.706 E.03338
G1 X103.973 Y101.232 E.02244
G1 X104.472 Y100.733 E.03338
G1 X104.472 Y100.258 E.02244
G1 X103.973 Y100.757 E.03338
G1 X103.973 Y100.283 E.02244
G1 X104.472 Y99.783 E.03338
G1 X104.472 Y99.309 E.02244
G1 X103.973 Y99.808 E.03338
G1 X103.973 Y99.333 E.02244
G1 X104.472 Y98.834 E.03338
G1 X104.472 Y98.359 E.02244
G1 X103.973 Y98.859 E.03338
G1 X103.973 Y98.384 E.02244
G1 X104.472 Y97.885 E.03338
G1 X104.472 Y97.41 E.02244
G1 X103.973 Y97.909 E.03338
G1 X103.973 Y97.435 E.02244
G1 X104.472 Y96.935 E.03338
G1 X104.472 Y96.461 E.02244
G1 X103.973 Y96.96 E.03338
G1 X103.973 Y96.485 E.02244
G1 X104.472 Y95.986 E.03338
G1 X104.472 Y95.512 E.02244
G1 X103.973 Y96.011 E.03338
G1 X103.973 Y95.536 E.02244
G1 X104.472 Y95.037 E.03338
G1 X104.472 Y94.562 E.02244
G1 X103.973 Y95.062 E.03338
G1 X103.973 Y94.587 E.02244
G1 X104.472 Y94.088 E.03338
G1 X104.472 Y93.613 E.02244
G1 X103.973 Y94.112 E.03338
G1 X103.973 Y93.638 E.02244
G1 X104.472 Y93.138 E.03338
G1 X104.472 Y92.664 E.02244
G1 X103.973 Y93.163 E.03338
G1 X103.973 Y92.688 E.02244
G1 X104.472 Y92.189 E.03338
G1 X104.472 Y91.714 E.02244
G1 X103.973 Y92.214 E.03338
G1 X103.973 Y91.739 E.02244
G1 X104.472 Y91.24 E.03338
G1 X104.472 Y90.765 E.02244
G1 X103.973 Y91.264 E.03338
G1 X103.973 Y90.79 E.02244
G1 X104.472 Y90.291 E.03338
G1 X104.472 Y89.816 E.02244
G1 X103.973 Y90.315 E.03338
G1 X103.973 Y89.841 E.02244
G1 X104.472 Y89.341 E.03338
G1 X104.472 Y88.867 E.02244
G1 X103.973 Y89.366 E.03338
G1 X103.973 Y88.891 E.02244
G1 X104.472 Y88.392 E.03338
G1 X104.472 Y87.917 E.02244
G1 X103.973 Y88.417 E.03338
G1 X103.973 Y87.942 E.02244
G1 X104.472 Y87.443 E.03338
G1 X104.472 Y86.968 E.02244
G1 X103.973 Y87.467 E.03338
G1 X103.973 Y86.993 E.02244
G1 X104.472 Y86.493 E.03338
G1 X104.472 Y86.019 E.02244
G1 X103.973 Y86.518 E.03338
G1 X103.973 Y86.043 E.02244
M73 P7 R13
G1 X104.472 Y85.544 E.03338
G1 X104.472 Y85.07 E.02244
G1 X103.973 Y85.569 E.03338
G1 X103.973 Y85.094 E.02244
G1 X104.472 Y84.595 E.03338
G1 X104.472 Y84.12 E.02244
G1 X103.973 Y84.62 E.03338
G1 X103.973 Y84.145 E.02244
G1 X104.472 Y83.646 E.03338
G1 X104.472 Y83.171 E.02244
G1 X103.973 Y83.67 E.03338
G1 X103.973 Y83.196 E.02244
G1 X104.472 Y82.696 E.03338
G1 X104.472 Y82.222 E.02244
G1 X103.973 Y82.721 E.03338
G1 X103.973 Y82.246 E.02244
G1 X104.472 Y81.747 E.03338
G1 X104.472 Y81.272 E.02244
G1 X103.973 Y81.772 E.03338
G1 X103.973 Y81.297 E.02244
G1 X104.472 Y80.798 E.03338
G1 X104.472 Y80.323 E.02244
G1 X103.973 Y80.822 E.03338
G1 X103.973 Y80.348 E.02244
G1 X104.307 Y80.014 E.02233
G1 E-2.7 F4800
;WIPE_START
G1 F6240
G1 X103.973 Y80.348 E-.34515
G1 X103.973 Y80.822 E-.34685
G1 X104.472 Y80.323 E-.51599
G1 X104.472 Y80.798 E-.34685
G1 X104.322 Y80.948 E-.15516
;WIPE_END
G1 E-.09 F4800
G1 Z.95 F7800
G1 X90.751 Y100.651
G1 Z.35
G1 E4.5 F3000
;TYPE:Perimeter
;WIDTH:0.7
G1 F1800
G1 X90.751 Y101.901 E.11359
